src/icons/gym.svg

<svg viewBox="0 0 40 40" width="80" height="80"><g><path d="M28 19v2H12v-2h16m1-1H11v4h18v-4z"/><path d="M31 11v18h-2V11h2m1-1h-4v20h4V10z"/><path d="M34 14v12h-2V14h2m1-1h-4v14h4V13zM11 11v18H9V11h2m1-1H8v20h4V10z"/><path d="M8 14v12H6V14h2m1-1H5v14h4V13z"/></g></svg>

<svg id="Layer_2" data-name="Layer 2" xmlns="http://www.w3.org/2000/svg" viewBox="0 0 40 40"><title>Artboard 1 copy 2</title><path d="M28,19v2H12V19H28m1-1H11v4H29V18Z"/><path d="M31,11V29H29V11h2m1-1H28V30h4V10Z"/><path d="M34,14V26H32V14h2m1-1H31V27h4V13Z"/><path d="M11,11V29H9V11h2m1-1H8V30h4V10Z"/><path d="M8,14V26H6V14H8m1-1H5V27H9V13Z"/></svg>
